X:11
T:FrÃ¼hlingskinder (Mazurka) CF 10- chords
M:3/4
L:1/8
K:Cmaj%%MIDI gchordon
"C"C>E G2 E>c |"G7"cB B2B2 | B,>D G2 F>d | "C"dc c2c2 | G>C E>G F>E |1 "G7".E2 D4 | B>D F>A G>F | "C".F2E4 :|2 
"Dm"D>A A4 | "G7"G>B B3G | "C"c2c2z2 |: "G7"B,>B, B,>D F>A | "C".G2E3G | "G7".F2D3F | "C"E>c G2G2 | 
"G7"B,>B, B,>D F>A | "C".G2E3E | "G7"D>F A2 G>B | "C"c2c2z2 :: [K:Fmaj] "F"A2G2F2 | "C7"EB E4 | F2E2D2 | "F"CAC4 | 
c2B2A2 | "Gm"BG D4 |1 d2c2B2 | "F"AF C4 :|2 C>D E>B AG | "F"F2F2z2 || [K:Cmaj] "C"E>E E>c G2 | E>E E>cG2 | 
"G7"B,>C D>E F>G | "C"A2 G^F G2 | E>E E>c G2 | E>E E>c G2 | "G7"B>c d>G A>B | "C"c2c2 "_> Teil C"z2 || 

